X: 32946
T: President Garfield's
R: hornpipe
M: 4/4
K: Amajor
dcB|AECE AECE|AGAB cBcd|eBGB eBGB|e^def e=dcB|
AECE AECE|AGAB cBcd|efgf edcB|1 Aaec A:|2 Aaec A||
|:aga|fdAF D3f|ecAE CEAe|dGfe dGfe|cAfe cAag|
fdAF DFAf|ecAE CEAe|^degf e=dcB|1 Aaec A:|2 Aaec A||

